static/icons/moderation.svg

<?xml version="1.0" encoding="utf-8"?>
<!-- Uploaded to: SVG Repo, www.svgrepo.com, Generator: SVG Repo Mixer Tools -->
<svg width="800px" height="800px" viewBox="0 0 24 24" fill="none" xmlns="http://www.w3.org/2000/svg">
<g id="Shape / Shield">
<path id="Vector" d="M12.9258 20.6314C15.0319 19.6781 20 16.7333 20 10.165V6.19691C20 5.07899 20 4.5192 19.7822 4.0918C19.5905 3.71547 19.2837 3.40973 18.9074 3.21799C18.4796 3 17.9203 3 16.8002 3H7.2002C6.08009 3 5.51962 3 5.0918 3.21799C4.71547 3.40973 4.40973 3.71547 4.21799 4.0918C4 4.51962 4 5.08009 4 6.2002V10.165C4 16.7333 8.9678 19.6781 11.074 20.6314C11.2972 20.7325 11.4094 20.7829 11.6621 20.8263C11.8215 20.8537 12.1795 20.8537 12.3389 20.8263C12.5907 20.7831 12.7017 20.7328 12.9235 20.6324L12.9258 20.6314Z" stroke="#000000" stroke-width="2" stroke-linecap="round" stroke-linejoin="round"/>
</g>
</svg>

<svg width="800" height="800" viewBox="0 0 24 24" fill="none" xmlns="http://www.w3.org/2000/svg"><path d="M12.926 20.631C15.032 19.678 20 16.733 20 10.165V6.197c0-1.118 0-1.678-.218-2.105a2.001 2.001 0 00-.875-.874C18.48 3 17.92 3 16.8 3H7.2c-1.12 0-1.68 0-2.108.218a1.999 1.999 0 00-.874.874C4 4.52 4 5.08 4 6.2v3.965c0 6.568 4.968 9.513 7.074 10.466.223.102.335.152.588.195.16.028.518.028.677 0 .252-.043.363-.093.585-.194h.002z" stroke="#000" stroke-width="2" stroke-linecap="round" stroke-linejoin="round"/></svg>
